X:68
T:Galar Ffrancod - The Grief of the French
M:6/8
L:1/8
Q:120
C:Trad. arr. J.T.
R:Jig
N:E minor arrangement
K:G
B | E2 F GAB | ABc B3 | AFA GEG | FED DEF | E2 F GAB
| ABc B3 | AFA GEG | FED E2 :||: B | G2 F EFG | FED DEF | G2 F EFG |
EF E D3 | E2 F GAB | ABc B3 | AFA GEG | FED E2 :||
